X:1
T:En amour y a du plaisir
T:Clément Janequin
T:(?1485-1558)
T:En amour y a du plaisir
T:Copyright © 2008 by the Choral Public Domain Library (http://www.cpdl.org)
T:Copyright © 2008 by the Choral Public Domain Library (http://www.cpdl.org)
T:Copyright © 2008 by the Choral Public Domain Library (http://www.cpdl.org)
C:Clément Janequin
Z:Copyright © 2008 by the Choral Public Domain Library (http://www.cpdl.org)
%%score 1 2 3 4
L:1/8
Q:1/4=120
M:4/4
K:F
V:1 treble nm="Part_1"
V:2 treble nm="Part_2"
V:3 treble transpose=-12 nm="Part_3"
V:4 bass nm="Part_4"
V:1
 F4 F2 F2 | G2 B2 A2 G2 | G2 F2 F2 F2 | F6 F2 | E2 F2 E4 | E2 F2 F2 F2 | G2 B2 A2 G2 | %7
w: En * a­mour|y a du plai-|sir, en * a­mour|dou- leur|se pour- mè-|ne, y cueil­le *|qui en peut choi|
 G2 F2 F2 F2 | F6 F2 | E2 F2 E4 | E2 c2 c2 c2 | d3 c B2 A2 | B4 G2 G2 | B2 c2 A2 c2 | B2 A4 G2 | %15
w: sir la roze et|l'es- pi-|ne n'y pren-|ne. Mais si du|bien tant est pro-|chai- ne que|l'un sans l'aul- tre|ne puisse es-|
 F2 F2 F2 F2 |: G2 F2 B2 B2 | A4 G2 c2 | c2 c2 f2 e2 | d2 (c3 B) B2 | c2 A2 c3 c | %21
w: tre. Quit- ter le|plai- sir pour la|pei- ne, C'est|par Dieu fau- te|de con- * naî|tre, C'est par Dieu|
[M:6/4] B2 A2 GF F2- FE F2 ||1[M:4/4] F2 F2 F2 F2 :|2 F8 |] z8 | %25
w: fau- te de * con- * * naî|tre. Quit- ter le|tre.||
V:2
 C4 C2 C2 | E2 F2 F2 D2 | E2 D2 D2 D2 | D6 C2 | C2 B,2 C4 | C2 C2 D2 D2 | E2 F2 F2 D2 | %7
w: En * a­mour|y a du plai-|sir, en * a­mour|dou- leur|se pour- mè-|ne, y cueil­le *|qui en peut choi|
 E2 D2 D2 D2 | D6 C2 | C2 B,2 C4 | C2 G2 G2 G2 | B3 A G2 F2 | G4 E2 E2 | G2 G2 C2 F2 | F2 F2 D4 | %15
w: sir la roze et|l'es- pi-|ne n'y pren-|ne. Mais si du|bien tant est pro-|chai- ne que|l'un sans l'aul- tre|ne puissees- *|
 D2 D2 D2 D2 |: E2 D2 B,2 F2 | F4 E2 E2 | A2 A2 A3 E | F2 C2 D4 | A2 F2 A3 G | %21
w: tre. Quit- ter le|plai- sir pour la|pei- ne, C'est|par Dieu fau- te|de con- naî-|tre, C'est par Dieu|
[M:6/4] F2 E2 D2 D2 C4 ||1[M:4/4] C2 D2 D2 D2 :|2 C8 |] z8 | %25
w: fau- te de con- naî-|tre. Quit- ter le|tre.||
V:3
 F4 A2 A2 | c2 d2 c2 B2 | c2 A2 A2 A2 | B6 A2 | G2 F2 G4 | G2 F2 A2 A2 | c2 d2 c2 B2 | %7
w: En * a­mour|y a du plai-|sir, en * a­mour|dou- leur|se pour- mè-|ne, y cueil­le *|qui en peut choi|
 c2 A2 A2 A2 | B6 A2 | G2 F2 G4 | G2 e2 e2 e2 | f3 e d2 c2 | d4 c2 c2 | d2 e2 f2 c2 | d2 A2 B4 | %15
w: sir la roze et|l'es- pi-|ne n'y pren-|ne. Mais si du|bien tant est pro-|chai- ne que|l'un sans l'aul- tre|ne puissees- *|
 A2 B2 B2 B2 |: B2 B2 d2 d2 | c4 c2 c2 | f3 e d2 c2 | B2 A2 G4 | F2 c2 f3 e | %21
w: tre. Quit- ter le|plai- sir pour la|pei- ne, C'est|par Dieu fau- te|de con- naî-|tre. C'est par Dieu|
[M:6/4] d2 c2 B2 A2 G4 ||1[M:4/4] F2 B2 B2 B2 :|2 F8 |] z8 | %25
w: fau- te de con- naî-|tre. Quit- ter le|tre.||
V:4
 F,4 F,2 F,2 | C,2 B,,2 F,2 G,2 | C,2 D,2 D,2 D,2 | B,,6 F,2 | C,2 D,2 C,4 | C,2 F,2 D,2 D,2 | %6
w: En * a­mour|y a du plai-|sir, en * a­mour|dou- leur|se pour- mè-|ne, y cueil­le *|
 C,2 B,,2 F,2 G,2 | C,2 D,2 D,2 D,2 | B,,6 F,2 | C,2 D,2 C,4 | C,2 C2 C2 C2 | B,3 C G,2 A,2 | %12
w: qui en peut choi|sir la roze et|l'es- pi-|ne n'y pren-|ne. Mais si du|bien tant est pro-|
 G,4 C,2 C,2 | G,2 C,2 F,2 F,2 | B,,2 F,2 G,4 | D,2 B,,2 B,,2 B,,2 |: E,2 B,,2 x2 B,,2 | F,4 C,4 | %18
w: chai- ne que|l'un sans l'aul- tre|ne puissees- *|tre. Quit- ter le|plai- sir la|pei- ne,|
 z8 | z8 | z2 F,2 F,3 C, |[M:6/4] D,2 A,,2 B,,2 F,2 C,4 ||1[M:4/4] F,2 B,,2 B,,2 B,,2 :|2 F,8 |] %24
w: ||C'est par Dieu|fau- te de con- naî-|tre. Quit- ter le|tre.|
 z8 | %25
w: |

